X:1
T:O Wonderful Love
T:O Wonderful Love
T:Daniel Brink Towner
T:Rhoda B. Starin, 1909
T:Public Domain Courtesy of the Cyber Hymnal™
T:Public Domain Courtesy of the Cyber Hymnal™
C:Daniel Brink Towner
Z:Public Domain
Z:Courtesy of the Cyber Hymnal™
%%score ( 1 2 ) ( 3 4 )
L:1/8
Q:1/4=92
M:6/8
K:Db
V:1 treble 
V:2 treble 
V:3 bass 
V:4 bass 
V:1
 [DF]/[EG]/ | [FA]>[=E=G][FA] [Fd]2 [_GB] | [FA]3 [DF]2 [DF] | [EA]2 [GB] [EG]2 [EA] | %4
w: 1.~O the|won- der- ful love of|Je- sus, It|fills my heart with|
w: 2.~O the|won- der- ful love of|Je- sus, It|cures the sin- sick|
w: 3.~O the|won- der- ful love of|Je- sus, We’ll|tell it o’er and|
 [DF]3- [DF]2 [DF]/[EG]/ | [FA]>[=E=G][FA] [Fd]2 [_GB] | [FA]3 [DF]2 [DF] | %7
w: joy; * O the|won- der- ful love of|Je- sus Gives|
w: soul; * O the|won- der- ful love of|Je- sus Can|
w: o’er; * O the|won- der- ful love of|Je- sus, We’ll|
 [DE]2 [D=G] [DB]2 [Ec] | [CA]3- [CA]2 [CA] | ([CG][DF])[EG] [Gc]2 [GB] | [GB]3 [FA]2 [FA] | %11
w: peace naught can des-|troy; * ’Tis|man- * na to my|spir- it, ’Tis|
w: make the bo- dy|whole; * It|com- * forts ev- ery|sor- row, It|
w: sing from shore to|shore. * O|take * this love of|Je- sus, Your|
 ([EG][DF])[EG] [Gc]2 [GB] | [FA]3- [FA]2 [FA]/[FA]/ | [Fd]>[Gc][Ad] (ed)[GB] | [FA]3 [DF]2 [FA] | %15
w: hon- * ey to my|soul; * O the|won- der- ful love * of|Je- sus Brings|
w: takes * a- way all|care; * O the|won- der- ful love * of|Je- sus Brings|
w: heart * let Him con-|trol; * Shout the|won- der- ful love * of|Je- sus While|
 [EA]2 E [DA]2 [CG] | [DF]3- [DF]2 [FA]/[FA]/ | [Fd]>[Gc][Ad] (ed)[GB] | %18
w: hap- pi- ness un-|told; * O the|won- der- ful love * of|
w: bliss be- yond com-|pare; * O the|won- der- ful love * of|
w: end- less ag- es|roll; * Shout the|won- der- ful love * of|
 [FA]3 !fermata![Fd]2 [=Ed] | (dA)[DF] [EG]2 [CE] | D3- D2 |] %21
w: Je- sus Brings|hap- * pi- ness un-|told. *|
w: Je- sus Brings|bliss * be- yond com-|pare. *|
w: Je- sus While|end- * less ag- es|roll. *|
V:2
 x | x6 | x6 | x6 | x6 | x6 | x6 | x6 | x6 | x6 | x6 | x6 | x6 | x3 G2 x | x6 | x2 E x3 | x6 | %17
 x3 G2 x | x6 | F2 x4 | D3- D2 |] %21
V:3
 [D,A,]/[D,A,]/ | [D,D]>[D,D][D,D] [D,A,]2 [D,D] | [D,D]3 [D,A,]2 [D,A,] | %3
 [A,,C]2 [A,,C] [A,,C]2 [A,,C] | [D,D]3- [D,D]2 [D,A,]/[D,A,]/ | [D,D]>[D,D][D,D] [D,A,]2 [D,D] | %6
 [D,D]3 [D,A,]2 [D,A,] | [E,=G,]2 [E,B,] [E,G,]2 [E,G,] | A,3- A,2 A, | A,2 A, A,2 [A,C] | %10
 [D,D]3 [D,D]2 [D,D] | (CD)[A,,A,] [A,,A,]2 [A,,C] | [D,D]3- [D,D]2 [D,D]/[D,D]/ | %13
 [D,A,]>[E,A,][F,A,] [G,B,]2 [G,D] | [D,D]3 [D,A,]2 [D,D] | [A,C]2 [G,A,] [F,A,]2 [E,A,] | %16
 [D,A,]3- [D,A,]2 [D,D]/[D,D]/ | [D,A,]>[E,A,][F,A,] [G,B,]2 [G,D] | %18
 [D,D]3 !fermata![B,,D]2 [__B,,=G,] | (A,D)[A,,A,] [A,,A,]2 [A,,G,] | [D,F,]3- [D,F,]2 |] %21
V:4
 x | x6 | x6 | x6 | x6 | x6 | x6 | x6 | A,3- A,2 A, | A,2 A, A,2 x | x6 | A,,2 x4 | x6 | x6 | x6 | %15
 x6 | x6 | x6 | x6 | A,,2 x4 | x5 |] %21

